X: 1
T:Wings
M:C
L:1/8
Q:80
C:Trad.
S:March
K:HP
[| e|
{g}A2{GdGe}A3/2B/2{GdG}c2-ce|
{g}f3/2e/2{g}fa{ef}e2{gcd}ce|
{g}f3/2g/2af{g}e/2c3/2{gBd}B{G}A|  !
{g}B3/2c/2{Gdc}dc{gBd}Be{gde}dB|
{g}A2{GdGe}A3/2B/2{GdG}c2-ce|
{g}f3/2e/2{g}fa{ef}e2{gcd}ce|  !
{g}f3/2g/2af{g}e/2c3/2{g}B3/2{d}c/2|
{G}A4{GAG}A2-Ae|] [|
{ag}a2{g}a2{GdG}ag{fg}fe|  !
{g}f3/2e/2{g}fa{fg}fe{gcd}ce|
{g}f3/2g/2af{g}e/2c3/2{gBd}B{G}A|
{g}B3/2c/2{Gdc}dc{gBd}Be{gde}dB|  !
{g}A2{GdGe}A3/2B/2{GdG}c2-ce|
{g}f3/2e/2{g}fa{ef}e2{gcd}ce|
{g}f3/2g/2af{g}e/2c3/2{g}B3/2{d}c/2|  !
{G}A4{GAG}A3|]
